X:0865
T:Col: McDonald's Strathsy.
M:C
L:1/8
Q:1/4=112
I: :: :|
Z:Jack Campin * www.campin.me.uk * 2009
K:A Dorian
e|G<E E2       D>G``````G<B|A/A/A e<A c<Ae<A|G<E E2       D>G``````G<B|c>AB>G A/A/A A:|
f|g<g a/g/f/e/ d/c/B/A/ G>B|c/d/e A>B c>de>f|g<g a/g/f/e/ d/c/B/A/ G>B|c>AB>G A/A/A A:|

